src/assets/images/icon/loading/loading.svg

<svg width="34" height="34" viewBox="0 0 34 34" fill="none" xmlns="http://www.w3.org/2000/svg">
<g id="evaLoaderOutline0">
<g id="evaLoaderOutline1">
<path id="evaLoaderOutline2" d="M16.9997 0.333374C16.5576 0.333374 16.1337 0.508969 15.8212 0.821529C15.5086 1.13409 15.333 1.55801 15.333 2.00004V5.33337C15.333 5.7754 15.5086 6.19932 15.8212 6.51188C16.1337 6.82445 16.5576 7.00004 16.9997 7.00004C17.4417 7.00004 17.8656 6.82445 18.1782 6.51188C18.4907 6.19932 18.6663 5.7754 18.6663 5.33337V2.00004C18.6663 1.55801 18.4907 1.13409 18.1782 0.821529C17.8656 0.508969 17.4417 0.333374 16.9997 0.333374ZM31.9997 15.3334H28.6663C28.2243 15.3334 27.8004 15.509 27.4878 15.8215C27.1753 16.1341 26.9997 16.558 26.9997 17C26.9997 17.4421 27.1753 17.866 27.4878 18.1786C27.8004 18.4911 28.2243 18.6667 28.6663 18.6667H31.9997C32.4417 18.6667 32.8656 18.4911 33.1782 18.1786C33.4907 17.866 33.6663 17.4421 33.6663 17C33.6663 16.558 33.4907 16.1341 33.1782 15.8215C32.8656 15.509 32.4417 15.3334 31.9997 15.3334ZM6.99967 17C6.99967 16.558 6.82408 16.1341 6.51152 15.8215C6.19896 15.509 5.77504 15.3334 5.33301 15.3334H1.99967C1.55765 15.3334 1.13372 15.509 0.821163 15.8215C0.508602 16.1341 0.333008 16.558 0.333008 17C0.333008 17.4421 0.508602 17.866 0.821163 18.1786C1.13372 18.4911 1.55765 18.6667 1.99967 18.6667H5.33301C5.77504 18.6667 6.19896 18.4911 6.51152 18.1786C6.82408 17.866 6.99967 17.4421 6.99967 17ZM7.36634 5.33337C7.04145 5.02616 6.60783 4.8606 6.16087 4.8731C5.71391 4.88561 5.29022 5.07515 4.98301 5.40004C4.6758 5.72493 4.51023 6.15855 4.52274 6.60551C4.53524 7.05248 4.72478 7.47616 5.04967 7.78337L7.44967 10.1C7.61073 10.2556 7.80147 10.377 8.01051 10.4572C8.21955 10.5374 8.44259 10.5746 8.66634 10.5667C8.89085 10.5659 9.11287 10.5196 9.31908 10.4309C9.52529 10.3421 9.71143 10.2125 9.86634 10.05C10.1768 9.73777 10.351 9.31535 10.351 8.87504C10.351 8.43473 10.1768 8.01231 9.86634 7.70004L7.36634 5.33337ZM25.333 10.5667C25.7621 10.565 26.174 10.3978 26.483 10.1L28.883 7.78337C29.1758 7.47746 29.3411 7.07157 29.3455 6.64816C29.3499 6.22474 29.1929 5.81553 28.9065 5.50366C28.6201 5.19178 28.2257 5.00061 27.8034 4.96899C27.3812 4.93736 26.9627 5.06764 26.633 5.33337L24.233 7.70004C23.9226 8.01231 23.7484 8.43473 23.7484 8.87504C23.7484 9.31535 23.9226 9.73777 24.233 10.05C24.5216 10.3546 24.9144 10.5391 25.333 10.5667ZM16.9997 27C16.5576 27 16.1337 27.1756 15.8212 27.4882C15.5086 27.8008 15.333 28.2247 15.333 28.6667V32C15.333 32.4421 15.5086 32.866 15.8212 33.1786C16.1337 33.4911 16.5576 33.6667 16.9997 33.6667C17.4417 33.6667 17.8656 33.4911 18.1782 33.1786C18.4907 32.866 18.6663 32.4421 18.6663 32V28.6667C18.6663 28.2247 18.4907 27.8008 18.1782 27.4882C17.8656 27.1756 17.4417 27 16.9997 27ZM26.5497 23.9C26.2314 23.5928 25.8042 23.4246 25.3619 23.4324C24.9196 23.4403 24.4986 23.6234 24.1913 23.9417C23.8841 24.26 23.7159 24.6872 23.7237 25.1295C23.7316 25.5718 23.9147 25.9928 24.233 26.3L26.633 28.6667C26.942 28.9645 27.3539 29.1317 27.783 29.1334C28.0063 29.1347 28.2276 29.0911 28.4338 29.0052C28.6399 28.9193 28.8267 28.7929 28.983 28.6334C29.1392 28.4784 29.2632 28.2941 29.3478 28.091C29.4324 27.8879 29.476 27.6701 29.476 27.45C29.476 27.23 29.4324 27.0122 29.3478 26.8091C29.2632 26.606 29.1392 26.4216 28.983 26.2667L26.5497 23.9ZM7.44967 23.9L5.04967 26.2167C4.89346 26.3716 4.76947 26.556 4.68486 26.7591C4.60024 26.9622 4.55668 27.18 4.55668 27.4C4.55668 27.6201 4.60024 27.8379 4.68486 28.041C4.76947 28.2441 4.89346 28.4284 5.04967 28.5834C5.20599 28.7429 5.39277 28.8693 5.59891 28.9552C5.80506 29.0411 6.02636 29.0847 6.24967 29.0834C6.66053 29.0869 7.0582 28.9385 7.36634 28.6667L9.76634 26.35C10.0846 26.0428 10.2678 25.6218 10.2756 25.1795C10.2834 24.7372 10.1152 24.31 9.80801 23.9917C9.5008 23.6734 9.07974 23.4903 8.63747 23.4824C8.1952 23.4746 7.76793 23.6428 7.44967 23.95V23.9Z" fill="white"/>
</g>
</g>
</svg>

<svg xmlns="http://www.w3.org/2000/svg" width="34" height="34" fill="none"><path fill="#fff" d="M17 .333A1.666 1.666 0 0 0 15.333 2v3.333a1.667 1.667 0 1 0 3.333 0V2A1.667 1.667 0 0 0 17 .333Zm15 15h-3.334a1.667 1.667 0 0 0 0 3.334H32a1.667 1.667 0 0 0 0-3.334ZM7 17a1.667 1.667 0 0 0-1.667-1.667H2a1.667 1.667 0 0 0 0 3.334h3.333A1.667 1.667 0 0 0 7 17Zm.366-11.667a1.686 1.686 0 0 0-2.316 2.45l2.4 2.317a1.666 1.666 0 0 0 1.216.467 1.667 1.667 0 0 0 1.2-.517 1.666 1.666 0 0 0 0-2.35l-2.5-2.367Zm17.967 5.234c.43-.002.841-.17 1.15-.467l2.4-2.317a1.667 1.667 0 0 0-2.25-2.45l-2.4 2.367a1.667 1.667 0 0 0 0 2.35c.289.305.681.49 1.1.517ZM17 27a1.666 1.666 0 0 0-1.667 1.667V32a1.667 1.667 0 1 0 3.333 0v-3.333A1.667 1.667 0 0 0 17 27Zm9.55-3.1a1.668 1.668 0 0 0-2.317 2.4l2.4 2.367a1.667 1.667 0 0 0 2.35-.034 1.667 1.667 0 0 0 0-2.366L26.55 23.9Zm-19.1 0-2.4 2.317a1.666 1.666 0 0 0 0 2.366 1.667 1.667 0 0 0 1.2.5c.41.004.808-.144 1.116-.416l2.4-2.317a1.668 1.668 0 1 0-2.316-2.4v-.05Z"/></svg>
